public/favicon.svg

<svg xmlns="http://www.w3.org/2000/svg" version="1.1" xmlns:xlink="http://www.w3.org/1999/xlink" width="24" height="24"><svg xmlns="http://www.w3.org/2000/svg" version="1.1" xmlns:xlink="http://www.w3.org/1999/xlink" width="24" height="24"><svg width="24" height="24" viewBox="0 0 24 24" fill="none" xmlns="http://www.w3.org/2000/svg">
<path d="M12 4V5M18 16H20M14 16H12V20M12 9V12M12 12H12.01M12 12H16.01M16 20H20M4 12H8M20 12H20.01M5 8H7C7.26522 8 7.51957 7.89464 7.70711 7.70711C7.89464 7.51957 8 7.26522 8 7V5C8 4.73478 7.89464 4.48043 7.70711 4.29289C7.51957 4.10536 7.26522 4 7 4H5C4.73478 4 4.48043 4.10536 4.29289 4.29289C4.10536 4.48043 4 4.73478 4 5V7C4 7.26522 4.10536 7.51957 4.29289 7.70711C4.48043 7.89464 4.73478 8 5 8ZM17 8H19C19.2652 8 19.5196 7.89464 19.7071 7.70711C19.8946 7.51957 20 7.26522 20 7V5C20 4.73478 19.8946 4.48043 19.7071 4.29289C19.5196 4.10536 19.2652 4 19 4H17C16.7348 4 16.4804 4.10536 16.2929 4.29289C16.1054 4.48043 16 4.73478 16 5V7C16 7.26522 16.1054 7.51957 16.2929 7.70711C16.4804 7.89464 16.7348 8 17 8ZM5 20H7C7.26522 20 7.51957 19.8946 7.70711 19.7071C7.89464 19.5196 8 19.2652 8 19V17C8 16.7348 7.89464 16.4804 7.70711 16.2929C7.51957 16.1054 7.26522 16 7 16H5C4.73478 16 4.48043 16.1054 4.29289 16.2929C4.10536 16.4804 4 16.7348 4 17V19C4 19.2652 4.10536 19.5196 4.29289 19.7071C4.48043 19.8946 4.73478 20 5 20Z" stroke="#F9CB15" stroke-width="2" stroke-linecap="round" stroke-linejoin="round"></path>
</svg></svg><style>@media (prefers-color-scheme: light) { :root { filter: none; } }
@media (prefers-color-scheme: dark) { :root { filter: none; } }
</style></svg>

<svg xmlns="http://www.w3.org/2000/svg" viewBox="0 0 24 24" fill="none" stroke="#1a1a1a" stroke-width="1.5" stroke-linecap="round" stroke-linejoin="round">
  <rect width="24" height="24" rx="4" fill="#EAB308" stroke="none"/>
  <path d="M12 4v1m6 11h2m-6 0h-2v4m0-11v3m0 0h.01M12 12h4.01M16 20h4M4 12h4m12 0h.01M5 8h2a1 1 0 001-1V5a1 1 0 00-1-1H5a1 1 0 00-1 1v2a1 1 0 001 1zm12 0h2a1 1 0 001-1V5a1 1 0 00-1-1h-2a1 1 0 00-1 1v2a1 1 0 001 1zM5 20h2a1 1 0 001-1v-2a1 1 0 00-1-1H5a1 1 0 00-1 1v2a1 1 0 001 1z" stroke="#1a1a1a" stroke-width="1.5"/>
</svg>
